calendar-weekend.svg

<svg  viewBox="0 0 24 24" fill="currentColor"><path  d="M19 19V8H5V19H19M16 1H18V3H19C20.11 3 21 3.9 21 5V19C21 20.11 20.11 21 19 21H5C3.9 21 3 20.11 3 19V5C3 3.9 3.9 3 5 3H6V1H8V3H16V1M7 17V10H9V17H7M15 10H17V17H15V10Z"/></svg>

<svg fill="currentColor" viewBox="0 0 24 24"><path d="M19 19V8H5v11zM16 1h2v2h1a2 2 0 0 1 2 2v14c0 1.11-.89 2-2 2H5a2 2 0 0 1-2-2V5c0-1.1.9-2 2-2h1V1h2v2h8zM7 17v-7h2v7zm8-7h2v7h-2z"/></svg>
